src/img/hamburger.svg

<svg xmlns="http://www.w3.org/2000/svg" width="40" height="40" fill="none"><mask id="a" width="40" height="40" x="0" y="0" maskUnits="userSpaceOnUse" style="mask-type:alpha"><path fill="#D9D9D9" d="M0 0h40v40H0z"/></mask><g mask="url(#a)"><path fill="#1C1B1F" d="M5 30v-2.792h30V30H5Zm0-8.625v-2.75h30v2.75H5Zm0-8.583V10h30v2.792H5Z"/></g></svg>

<svg width="40" height="40" viewBox="0 0 40 40" fill="none" xmlns="http://www.w3.org/2000/svg">
<mask id="mask0_360_3906" style="mask-type:alpha" maskUnits="userSpaceOnUse" x="0" y="0" width="40" height="40">
<rect width="40" height="40" fill="#D9D9D9"/>
</mask>
<g mask="url(#mask0_360_3906)">
<path d="M5 30V27.208H35V30H5ZM5 21.375V18.625H35V21.375H5ZM5 12.792V10H35V12.792H5Z" fill="#1C1B1F"/>
</g>
</svg>
